%% Do not edit, this file has been generated
%% automatically by report.tex via gmp.sty

verbatimtex%&latex
\documentclass[11pt]{article}


\begin{document}
etex;

input metauml;
outputtemplate:= "%j.mps";
beginfig(4);
 Class.A("Messages") ("+message:string","+size:int","+color:int[]","+font:Font","+x:int","+y:int") ("+new():void","+announceWinner(winner:string)","+show():void");
 
drawObject(A);
 
endfig;
end.
verbatimtex
\end{document}
etex
