%% Do not edit, this file has been generated
%% automatically by report.tex via gmp.sty

verbatimtex%&latex
\documentclass[11pt]{article}


\begin{document}
etex;

input metauml;
outputtemplate:= "%j.mps";
beginfig(3);
 Class.A("StatusBar") ("+player:Player","+value:int","+font:Font") ("+new(player:Player):void","+draw():void");
 
drawObject(A);
 
endfig;
end.
verbatimtex
\end{document}
etex
